X:6245
T:Tilley Plump
M:4/4
O:Shetland
R:Reel
Z:Richard Robinson 
%%TUNEURL: http://www.leeds.ac.uk/music/Info/RRTuneBk/gettune/00000a96.html
%%ID:00000a96
K:A
C<E A2 C<E A2 |A>G FE C<B, B,2 |\
C<E A>E F>E A>E | F>A E>C A,2 A,2 ::\
edcd e2e2|efec B2B2|
edcd e2e2|edcd e2a2|\
aecd e2e2|efec B2B2|cBAF EFAE|FAEC A,2A,2:|
